!!!COM: Georges Bizet
!!!CNT: Francais
!!!TXO: Francais
!!!OTL: La Coccinelle
!!!LYR: Victor Hugo
!!!ENC: Jacob Pegg
!!!YOR: Romantic French Song 1830-1870 -David Tunley, ed.,
!!!YOR: New York: Garland Publishing, Inc., 1995, Vol. 4
!!!ODT: 1868/
!!NB: Vocal melody and text only encoded.
!!NB: First instance of melodic material only encoded.
**kern	**silbe
*clef G2	*
*k[b-e-a-d-]	*
*M3/4	*
!!created: 5/7/03 8:55
!!proofed and posted: 5/7/03 15:02
!!edit time: 117 min.
=6	=6
4r	.
{4b-	{El-
8cc	-le
8dd-	me
=7	=7
2.g}	dit:}
=13	=13
4r	.
4r	.
{8ddn	{<<Quel-
8ff	-que
=14	=14
4.ee-	cho-
8a-	-se,
8b-	Me
8cc	tour-
=15	=15
2.cc	-men-
=16	=16
4ee-}	-te...>>}
4r	.
4r	.
=17	=17
2.r	.
=18	=18
4r	.
{4a-	{Et
8b-	j'a-
8cc	-per-
=19	=19
2.g}	-c5us}
=20	=20
4r	.
8r	.
{8cc	{Son
8ddn	cou
8ee-	de
=21	=21
2.ee-	nei-
=22	=22
4g-}	-ge,}
4r	.
4r	.
=23	=23
4r	.
4r	.
4r	.
=24	=24
2r	.
4r	.
=25	=25
4r	.
{4f	{et,
4cc	des-
=26	=26
2b-}	-sus,}
4r	.
=27	=27
4r	.
{4f	{et
4ee-	des-
=28	=28
2dd-}	-sus,}
4r	.
=29	=29
{4cc	{Un
4b-	pe-
4a-	-tit
=30	=30
4g	in-
(16gq	|
16b-q	|
4a-)	-sec-
4f	-te
=31	=31
(2.e-	ro-
=32	=32
2.b-)	|
=33	=33
4a-}	-se.}
4r	.
4r	.
=34	=34
4r	.
2r	.
=35	=35
2r	.
4r	.
=36	=36
4r	.
4r	.
{8dd-	{J'au-
8ee-	-rais
=37	=37
2ff-}	du^...}
4r	.
=38	=38
4r	.
2r	.
=39	=39
{2b-	{Oui...
4r	.
=40	=40
4r	.
2r	.
=41	=41
2.e-}	mais,}
=42	=42
4r	.
{4f	{sage
4g	ou
=43	=43
2.a-}	fou,}
=44	=44
4r	.
{4b-	{A
4cc	seize
=45	=45
[2.dd-	ans
=46	=46
2dd-]}	|}
4r	.
=47	=47
4r	.
2r	.
=48	=48
{4b-	{on
4.ee-	est
8dd-	fa-
=49	=49
2dd-	-rou-
4cc}	-che!}
=50	=50
4r	.
2r	.
=51	=51
2r	.
4r	.
=52	=52
4r	.
{4ddn	{J'au-
4cc	-rais
=53	=53
2.b-}	du^...}
=54	=54
4r	.
2r	.
=55	=55
4r	.
{4ddn	{Oh!
[4ff	oui
=56	=56
4ff]	|
4b-	j'au-
4cc	-rais
=57	=57
2.b-	du^
=58	=58
[2.g	Voir
=59	=59
4g]	|
4a-	le
4b-	bai-
=60	=60
4cc	-ser
4ddn	sur
4ee-	sa
=61	=61
[2.gg	bou-
=62	=62
2.gg]	|
=63	=63
[2.f	-che
=64	=64
4f]}	|}
4r	.
4r	.
=65	=65
{4ddn	{Plus
4ee-	que
4ddn	l'in-
=66	=66
4cc	-sec-
4f	-te a\
4cc	son
=67	=67
2b-}	cou...}
4r	.
=68	=68
{4dd-	{J'au-
4cc	-rais
4b-	du^
=69	=69
4b-	Voir
4a-	le
4g	bai-
=70	=70
4f	-ser
4.e-	sur
8c	sa
=71	=71
2.cc	bou-
=72	=72
2.b-}	-che...}
=73	=73
4r	.
{4ddn	{le
4ee-	bai-
=74	=74
4gg	-ser
4g	sur
4a-	sa
=75	=75
2g	bou-
4f}	-che}
=76	=76
{[2.cc	{Plus
=77	=77
4cc]	|
4f	que
4g	l'in-
=78	=78
4a-	-secte
4f	a\
4b-	son
=79	=79
[2.e-	cou!
=80	=80
4e-]}	|}
4r	.
4r	.
=84	=84
{2ee-	{On
4ee-	eu^t
=85	=85
(2ee-	dit
4b-)	|
=86	=86
4cc	un
4f	co-
4a-	-quil-
=87	=87
(4a-	-la-
4g	|
4f#)	|
=88	=88
2g}	-ge,}
4r	.
=92	=92
{2.ee-	{Dos
=93	=93
(2ee-	rose
4b-)	|
=94	=94
(4cc	et
4a-)	|
4ff	ta-
=95	=95
(16ffq	-che/
16ggq	|
4ff	|
4ee-)	|
4ddn	de
=96	=96
2ee-}	noir:}
4r	.
=97	=97
{2ddn	{Les
4bn	fau-
=98	=98
2.cc	-vet-
=99	=99
4e-	-tes
4f	pour
4f#	nous
=100	=100
2g}	voir}
4r	.
=101	=101
{(4ddn	{Se
4gg)	|
4ff	pen-
=102	=102
(4ff	-chaient
4ee-)	|
4ddn	dans
=103	=103
(4cc	le
16ddnq	|
16ccq	|
4b-)	|
4a-	feuil-
=104	=104
2a-	-la-
4g}	-ge...}
=105	=105
4r	.
2r	.
=106	=106
{[2.gg	{oui,
=107	=107
2.gg_	|
=108	=108
8gg]}	|}
8r	.
{4ff	{se
4ee-	pen-
=109	=109
(4ff	-chaient
4ee-)	|
4dd-	dans
=110	=110
(4ee-	le
4dd-)	|
4cc	feuil-
=111	=111
(16ccq	|
16ee-q	|
4dd-	-la-
4f	|
4g)	|
=112	=112
2a-}	-ge.}
4r	.
=117	=117
{4b-	{Sa
4cc	bou-
4dd-	-che
=118	=118
[2.ee-	frai^che
=119	=119
4ee-]	|
4b-	e/-
4bn	-tait
=120	=120
2.cc}	la\!...}
=125	=125
{4dd-	{Sa
4ee-	bou-
4ff-	-che
=126	=126
[2.ee-	frai^che
=127	=127
4ee-]	|
4ddn	e/-
4dd-	-tait
=128	=128
2.cc}	la\!...}
=129	=129
4r	.
2r	.
=130	=130
2r	.
4r	.
=131	=131
4r	.
{(4ddn	{He/-
4cc)	|
=132	=132
2.b-}	-las!}
=133	=133
4r	.
2r	.
=134	=134
2r	.
4r	.
=135	=135
{(2ff	{he/-
4ddn)	|
=136	=136
2.b-}	-las!}
=137	=137
4r	.
2r	.
=138	=138
{4g	{Je
4a-	me
4b-	pen-
=139	=139
4cc	-chai
4ddn	sur
4ee-	la
=140	=140
[2.gg	bel-
=141	=141
2.gg]	|
=142	=142
2.ff}	-le...}
=143	=143
4r	.
2r	.
=144	=144
{4ddn	{Et
4ee-	je
4ddn	pris
=145	=145
4cc	la
4f	coc-
4cc	-ci-
=146	=146
4cc	-nel-
4b-}	-le...}
4r	.
=152	=152
4r	.
{4ddn	{Je
4ff	pris
=153	=153
4ee-	la
4g	Coc-
4a-	-ci-
=154	=154
(4g	-nel-
4en)	|
4f	-le
=155	=155
2cc}	Mais...}
4r	.
=156	=156
4r	.
{4b-	{le
4bn	bai-
=157	=157
4cc	-ser
4dd-	s'en-
4ddn	-vo-
=158	=158
[2.ee-	-la!...
=159	=159
2ee-]}	|}
4r	.
=168	=168
{2ee-	{<<Fils,
8r	.
8a-	ap-
=169	=169
4.f	-prends
8a-	com-
8.dd-	-me on
16ff	me
=170	=170
[2ee-	nom-
(8ee-]	|
8cc)	|
=171	=171
2a-}	-me:>>}
4r	.
=172	=172
{8a-	{Dit
8b-	l'in-
4.cc	-sec-
8f	-te
=173	=173
8g	du
(16gq	|
16b-q	|
8a-)	ciel
[4g	bleu...
8g]}	|}
8r	.
=174	=174
4r	.
{4b-	{du
4b-	ciel
=175	=175
2b-}	bleu!...}
8r	.
{8e-	{<<Les
=176	=176
4f	be^-
8f	-tes
8g	sont
8a-	au
8b-	bon
=177	=177
2cc}	Dieu!...}
8r	.
{8g	{Les
=178	=178
4a-	be^-
8a-	-tes
8b-	sont
8cc	au
8ddn	bon
=179	=179
(2.ee-}	Dieu;}
=180	=180
{8ff)	{Mais
8een	la
8ff	be^-
8een	-tise
8ff	est
8gg	a\
=181	=181
(8ff	l'hom-
8ee-)	|
8cc}	-me...}
8r;	.
4r	.
=182	=182
{8b-	{Mais
8an	la
8b-	be^-
8an	-tise
8b-	est
8cc	a\
=183	=183
(8b-	l'hom-
8a-)	|
8cc-;}	-me!...>>}
8r;	.
4r	.
=184	=184
{8g	{Dit
8ff	l'in-
4.ee-	-sec-
8f	-te
=185	=185
8e-	du
8dd-	ciel
2cc}	bleu...}
=186	=186
4r	.
{4e-	{du
4e-	ciel
=187	=187
2.a-}	bleu!...}
=188	=188
4r	.
4r	.
8r	.
{8a-	{He/-
=189	=189
4dd-}	-las!}
4r	.
4r	.
=190	=190
8r	.
{16dd-	{j'au-
16ee-	-rais
4ff-}	du^...}
4r	.
=191	=191
4r	.
{4cc	{oui!...
4r	.
=192	=192
4r	.
8r	.
8a-	He/-
(8b-	-las!
16a-)}	|}
16r	.
=193	=193
4r	.
8r	.
{8a-	{he/-
(8ee-	-las!...
16dd-)}	|}
16r	.
=194	=194
4r	.
{(4.a-	{he/-
8aa-)	|
=195	=195
[2.aa-	-las!
=196	=196
4aa-]}	|}
4r	.
4r	.
=197	=197
4r	.
4r	.
{8cc	{j'au-
8bn	-rais
=198	=198
[2.cc	du^!...
=199	=199
4cc]}	|}
4r	.
4r	.
*-	*-
